src/assets/outline/DocumentUpload.svg

<svg width="24" height="24" viewBox="0 0 24 24"  xmlns="http://www.w3.org/2000/svg">
<path d="M8.99994 17.7505C8.58994 17.7505 8.24994 17.4105 8.24994 17.0005V12.8105L7.52994 13.5305C7.23994 13.8205 6.75994 13.8205 6.46994 13.5305C6.17994 13.2405 6.17994 12.7605 6.46994 12.4705L8.46994 10.4705C8.67994 10.2605 9.00994 10.1905 9.28994 10.3105C9.56994 10.4205 9.74994 10.7005 9.74994 11.0005V17.0005C9.74994 17.4105 9.40994 17.7505 8.99994 17.7505Z" />
<path d="M10.9999 13.7504C10.8099 13.7504 10.6199 13.6804 10.4699 13.5304L8.46994 11.5304C8.17994 11.2404 8.17994 10.7604 8.46994 10.4704C8.75994 10.1804 9.23994 10.1804 9.52994 10.4704L11.5299 12.4704C11.8199 12.7604 11.8199 13.2404 11.5299 13.5304C11.3799 13.6804 11.1899 13.7504 10.9999 13.7504Z" />
<path d="M15 22.75H9C3.57 22.75 1.25 20.43 1.25 15V9C1.25 3.57 3.57 1.25 9 1.25H14C14.41 1.25 14.75 1.59 14.75 2C14.75 2.41 14.41 2.75 14 2.75H9C4.39 2.75 2.75 4.39 2.75 9V15C2.75 19.61 4.39 21.25 9 21.25H15C19.61 21.25 21.25 19.61 21.25 15V10C21.25 9.59 21.59 9.25 22 9.25C22.41 9.25 22.75 9.59 22.75 10V15C22.75 20.43 20.43 22.75 15 22.75Z" />
<path d="M22 10.7505H18C14.58 10.7505 13.25 9.42048 13.25 6.00048V2.00048C13.25 1.70048 13.43 1.42048 13.71 1.31048C13.99 1.19048 14.31 1.26048 14.53 1.47048L22.53 9.47048C22.74 9.68048 22.81 10.0105 22.69 10.2905C22.57 10.5705 22.3 10.7505 22 10.7505ZM14.75 3.81048V6.00048C14.75 8.58048 15.42 9.25048 18 9.25048H20.19L14.75 3.81048Z" />
</svg>

<?xml version="1.0" encoding="UTF-8"?>
<svg width="24" height="24" viewBox="0 0 24 24" xmlns="http://www.w3.org/2000/svg">
 <path d="m8.9999 17.75c-0.41 0-0.75-0.34-0.75-0.75v-4.19l-0.72 0.72c-0.29 0.29-0.77 0.29-1.06 0s-0.29-0.77 0-1.06l2-2c0.21-0.21 0.54-0.28 0.82-0.16 0.28 0.11 0.46 0.39 0.46 0.69v6c0 0.41-0.34 0.75-0.75 0.75z"/>
 <path d="m11 13.75c-0.19 0-0.38-0.07-0.53-0.22l-2-2c-0.29-0.29-0.29-0.77 0-1.06s0.77-0.29 1.06 0l2 2c0.29 0.29 0.29 0.77 0 1.06-0.15 0.15-0.34 0.22-0.53 0.22z"/>
 <path d="m15 22.75h-6c-5.43 0-7.75-2.32-7.75-7.75v-6c0-5.43 2.32-7.75 7.75-7.75h5c0.41 0 0.75 0.34 0.75 0.75s-0.34 0.75-0.75 0.75h-5c-4.61 0-6.25 1.64-6.25 6.25v6c0 4.61 1.64 6.25 6.25 6.25h6c4.61 0 6.25-1.64 6.25-6.25v-5c0-0.41 0.34-0.75 0.75-0.75s0.75 0.34 0.75 0.75v5c0 5.43-2.32 7.75-7.75 7.75z"/>
 <path d="m22 10.75h-4c-3.42 0-4.75-1.33-4.75-4.75v-4c0-0.3 0.18-0.58 0.46-0.69 0.28-0.12 0.6-0.05 0.82 0.16l8 8c0.21 0.21 0.28 0.54002 0.16 0.82002s-0.39 0.46-0.69 0.46zm-7.25-6.94v2.19c0 2.58 0.67 3.25 3.25 3.25h2.19l-5.44-5.44z"/>
</svg>
